X:1
T:He Will Not Let Me Fall
T:He Will Not Let Me Fall
T:Bentley DeForest Ackley
T:Alfred Henry Ackley, 1910
T:Public Domain Courtesy of the Cyber Hymnal™
T:Public Domain Courtesy of the Cyber Hymnal™
C:Bentley DeForest Ackley
Z:Public Domain
Z:Courtesy of the Cyber Hymnal™
%%score ( 1 2 ) 3 ( 4 5 )
L:1/8
M:4/4
K:G
V:1 treble 
V:2 treble 
V:3 treble 
V:4 bass 
V:5 bass 
V:1
 D2 | G2 E2 F2 D2 | G2 B2 !fermata!d2 d2 | c2 E2 B2 E2 | A6 A2 | B2 A2 E2 A2 | %6
w: 1.~My|faith temp- ta- tion|shall not move, For|Je- sus knows it|all, And|holds me with His|
w: 2.~When|grief is more than|I can bear— To|weak am I to|call— If|I but lift my|
w: 3.~Some-|times I fal- ter,|filled with fear, I|can- not see at|all, His|voice I nev- er|
 B2 A2 !fermata!d2 F2 | A2 E2 A2 B2 | A6 ||"^Refrain" [Dd]2 | B2 B2 c2 A2 | d6 [Gd]2 | %12
w: arm of love— He|will not let me|fall.||||
w: heart in prayer, He|will not let me|fall.|He|will not let me|fall, He|
w: fail to hear— “I|will not let thee|fall.”||||
 [Ge]2 [Gd]2 [Fc]2 [GB]2 | [FA]6 [CD]2 | [DG]2 [DG]2 [DA]2 [GB]2 | %15
w: |||
w: will not let me|fall, He|is my strength, my|
w: |||
 [Gc]2 [Gd]2 !fermata![Ge]2 [Geg]2 | [Gd]2 [GB]2 [FA] [Fd]3 | [DG]6 |] %18
w: |||
w: hope, my all, He|will not let me|fall.|
w: |||
V:2
 x2 | x8 | x8 | x8 | x8 | x8 | x8 | x8 | x6 || x2 | G4 F4 | (G2 G2 F2) x2 | x8 | x8 | x8 | x8 | %16
 x8 | x6 |] %18
V:3
 z2 | [DGB]4 [DAc]4 | [DG-B-]4 !fermata![GB]2 [E^GB]2 | [EAc]4 [DE^GB]4 | [CEA]6 [CEA]2 | %5
w: |~ ~|~ * ~|~ ~|~ ~|
 [^CGA]4- [CGA]4 | [DFA]4 !fermata![FA]2 [DA]2 | [^CEGA]4 [CEGA]4 | [CDFA]6 || x2 | x8 | x8 | x8 | %13
w: ~ *|~ ~ ~|~ ~|~|||||
 x8 | x8 | x8 | x8 | x6 |] %18
w: |||||
V:4
 D,2 | G,2 F,2 G,2 D,2 | G,2 B,2 D2 D2 | C2 E,2 B,2 E,2 | z2 [C,,C,]2 [E,,E,]2 A,2 | %5
w: ~|~ ~ ~ ~|~ ~ ~ ~|~ ~ ~ ~|~ ~ ~|
 B,2 A,2 E,2 A,2 | B,2 A,2 !fermata!D2 F,2 | A,2 E,2 A,2 B,2 | [D,A,]6 || [D,D]2 | [G,D]4 D4 | %11
w: * ~ ~ ~|~ ~ ~ ~|~ ~ ~ ~|~|~|~ He|
 [B,D]2 [G,B,]2 [A,C]2 [B,D]2 | C2 [B,D]2 [A,D]2 [G,D]2 | [D,D]6 [F,A,]2 | %14
w: will not let me|fall, * * *||
 [G,B,]2 [G,B,]2 [F,C]2 [=F,D]2 | [E,C]2 [D,B,]2 [C,C]2 [^C,^A,]2 | [D,B,]2 [D,D]2 [D,D] [D,C]3 | %17
w: |||
 [G,,G,B,]6 |] %18
w: |
V:5
 x2 | x8 | x8 | x8 | A,6 x2 | x8 | x8 | x8 | x6 || x2 | x4 (A,2 C2) | x8 | C2 x6 | x8 | x8 | x8 | %16
 x8 | x6 |] %18

